images/seo/bg-2.svg

<svg width="48" height="111" viewBox="0 0 48 111" fill="none" xmlns="http://www.w3.org/2000/svg">
<path d="M47.1112 6.66352C47.1026 6.87147 47.0939 7.07942 47.0853 7.28737C47.0766 7.49532 47.2351 7.60606 47.5607 7.61958C46.2115 11.3131 44.3261 14.8282 41.9047 18.1647C41.8701 18.9965 41.625 19.6634 41.1694 20.1652C40.8222 20.6716 40.6313 21.3407 40.5968 22.1725C40.3798 22.1635 40.2148 22.2087 40.102 22.3082C40.0977 22.4121 39.987 22.4596 39.7699 22.4506C39.2754 23.8882 38.6702 25.3733 37.9543 26.9059C37.2384 28.4385 36.5246 29.9191 35.813 31.3478C36.0301 31.3568 36.1278 31.6212 36.1062 32.1411C35.8892 32.1321 35.7806 32.1276 35.7806 32.1276C35.6332 33.0588 35.2167 33.9269 34.531 34.7316C33.8497 35.4324 33.3767 36.3502 33.1122 37.4849C32.5653 37.5663 32.3309 37.9732 32.4092 38.7056C32.0837 38.692 31.9708 38.7915 32.0707 39.004C32.1706 39.2164 32.162 39.4244 32.0448 39.6278C30.8732 41.6623 30.0229 43.8142 29.4938 46.0837C29.2724 46.1786 29.1445 46.642 29.1099 47.4738C28.5587 47.6592 28.3287 47.9621 28.4199 48.3825C28.6197 48.8075 28.4982 49.1149 28.0555 49.3048C28.164 49.3093 28.2161 49.3635 28.2118 49.4675C28.2118 49.4675 28.2661 49.4698 28.3746 49.4743C27.9405 49.4563 27.7691 49.6575 27.8603 50.0779C27.9516 50.4983 27.9886 50.9164 27.9713 51.3323C27.3942 52.1416 26.9755 53.0616 26.7152 54.0924C26.4593 55.0191 26.0971 55.8894 25.6284 56.7032C25.4027 56.9021 25.1749 57.153 24.9449 57.4559C24.7192 57.6549 24.5456 57.9081 24.4242 58.2155C24.1899 58.6224 24.1162 59.088 24.2031 59.6124C24.3985 60.1413 24.1642 60.5482 23.5001 60.8331C23.5828 61.4614 23.559 62.0333 23.4289 62.5487C23.3031 62.9601 23.123 63.3692 22.8887 63.7761C22.9584 64.7164 22.8045 65.8036 22.4271 67.0378C22.0498 68.272 21.5204 69.2395 20.839 69.9403L20.7872 71.188C20.5572 71.4909 20.3229 71.8978 20.0843 72.4086C19.8456 72.9195 19.8262 73.3874 20.026 73.8123C19.3403 74.6171 18.9194 75.5891 18.7634 76.7283C18.6074 77.8675 18.2408 78.8418 17.6637 79.6511C17.2906 80.7813 17.0781 81.9702 17.0263 83.2179C16.9745 84.4656 16.66 85.4941 16.0829 86.3034C15.9225 87.5466 15.6558 88.7333 15.2828 89.8635C15.0182 90.9982 14.4889 91.9657 13.6947 92.766C13.1607 92.5355 12.8437 92.314 12.7439 92.1016C12.7352 92.3095 12.4053 92.4 11.7542 92.3729C11.4502 91.8395 10.9184 91.5571 10.1587 91.5255C9.50761 91.4985 9.03006 91.2183 8.72608 90.6849C8.27903 90.9788 7.8992 90.963 7.58659 90.6375C7.2783 90.2081 6.85068 90.0341 6.30375 90.1156C6.20386 89.9031 6.15608 89.7449 6.1604 89.6409C6.16472 89.5369 6.05835 89.4804 5.84131 89.4714C5.65017 88.8386 5.34403 88.3572 4.9229 88.0272C4.50608 87.5933 4.26068 86.9581 4.1867 86.1218C4.39943 86.2348 4.50795 86.2393 4.51227 86.1353C4.52091 85.9274 4.63159 85.8799 4.84431 85.9929C4.74011 85.8844 4.57949 85.8257 4.36244 85.8167C4.70096 85.5183 4.97659 85.4255 5.18931 85.5385C5.4409 84.7157 5.57533 84.0964 5.5926 83.6805C5.72272 83.1651 5.96567 82.5503 6.32146 81.836C6.32578 81.732 6.16516 81.6732 5.83959 81.6597C6.17379 81.4653 6.29311 81.2099 6.19754 80.8934L6.68589 80.9137C6.70748 80.3938 6.66617 80.0797 6.56197 79.9712C6.57061 79.7632 6.58572 79.3993 6.60731 78.8794C6.81572 79.0964 6.91992 79.2049 6.91992 79.2049C7.40151 78.0792 7.72032 76.9467 7.87634 75.8075C8.1452 74.5688 8.72667 73.6555 9.62076 73.0677L9.6661 71.976C9.55757 71.9715 9.50115 72.0212 9.49684 72.1252C9.49252 72.2292 9.384 72.2247 9.17127 72.1117C9.53138 71.2934 9.78297 70.4706 9.92604 69.6433C10.1819 68.7165 10.592 68.0045 11.1562 67.5071C11.2734 67.3037 11.2213 67.2494 10.9999 67.3444C10.7785 67.4394 10.6722 67.3829 10.6808 67.1749C10.5809 66.9625 10.6373 66.9127 10.8501 67.0257C11.0671 67.0347 11.2863 66.9918 11.5077 66.8968C11.2993 66.6798 11.2515 66.5216 11.3643 66.4222C11.59 66.2232 11.7593 66.074 11.8721 65.9745C11.7722 65.7621 11.718 65.7598 11.7093 65.9678C11.8092 66.1802 11.7549 66.178 11.5465 65.961C11.4467 65.7486 11.4075 65.3824 11.4291 64.8625L11.9174 64.8828C11.9563 63.947 12.1058 62.9637 12.3661 61.933C12.7348 60.9068 13.1514 60.0387 13.6157 59.3289C13.4073 59.112 13.4159 58.904 13.6416 58.7051C13.8673 58.5062 13.8802 58.1942 13.6804 57.7693C13.6804 57.7693 13.674 57.9253 13.661 58.2372C13.3354 58.2237 13.1162 58.2667 13.0034 58.3661C12.6994 57.8327 12.6603 57.4666 12.8859 57.2676C13.2202 57.0732 13.4372 57.0822 13.5371 57.2947C13.637 57.5071 13.7954 57.6179 14.0125 57.6269C14.2382 57.4279 14.3011 57.2222 14.2012 57.0098C14.1056 56.6933 14.2727 56.5961 14.7025 56.7181C14.7068 56.6142 14.5462 56.5554 14.2206 56.5419C14.3378 56.3384 14.5092 56.1372 14.7349 55.9383C15.0691 55.7439 15.132 55.5382 14.9236 55.3212C14.9322 55.1133 14.9344 55.0613 14.93 55.1653C15.0386 55.1698 15.2013 55.1765 15.4184 55.1855C15.3142 55.077 15.2642 54.9708 15.2686 54.8668C15.3857 54.6634 15.3336 54.6092 15.1122 54.7041C15.3336 54.6092 15.4486 54.4577 15.4572 54.2498C15.4702 53.9378 15.5874 53.7344 15.8087 53.6394C15.2661 53.6169 15.2248 53.3027 15.6848 52.6969C16.2533 52.0956 16.4377 51.5824 16.2379 51.1575L16.7263 51.1778C16.7392 50.8659 16.8 50.7122 16.9085 50.7167C16.9171 50.5087 16.8108 50.4522 16.5894 50.5472C16.4809 50.5427 16.4852 50.4387 16.6023 50.2353C16.8194 50.2443 16.9301 50.1968 16.9344 50.0928C17.0516 49.8894 17.2187 49.7922 17.4357 49.8012L16.6477 49.1435C16.8734 48.9446 16.9884 48.7931 16.9927 48.6891C17.1098 48.4857 17.3312 48.3907 17.6568 48.4043C17.5526 48.2958 17.3963 48.1331 17.1879 47.9161C17.0923 47.5997 17.2094 47.3962 17.5393 47.3058L17.3765 47.299L17.3895 46.9871C17.1725 46.9781 17.1139 47.0798 17.2138 47.2922C17.318 47.4007 17.2615 47.4505 17.0445 47.4414C16.8361 47.2245 16.8426 47.0685 17.0639 46.9735C17.2896 46.7746 17.5067 46.7836 17.7151 47.0006C17.8322 46.7971 17.8387 46.6412 17.7345 46.5327C17.6346 46.3202 17.6954 46.1665 17.9167 46.0716C17.6997 46.0626 17.589 46.11 17.5847 46.214C17.5847 46.214 17.5304 46.2118 17.4219 46.2072C17.539 46.0038 17.7083 45.8546 17.9297 45.7596C18.151 45.6647 18.2682 45.4612 18.2811 45.1493C18.2898 44.9414 18.1834 44.8849 17.9621 44.9798C17.8492 45.0793 17.7971 45.025 17.8057 44.8171C18.4526 44.9481 18.7303 44.8034 18.6391 44.383C18.5478 43.9626 18.6107 43.7569 18.8278 43.7659C18.7279 43.5535 18.6194 43.5489 18.5022 43.7524C18.4979 43.8564 18.3894 43.8519 18.1767 43.7389C18.4023 43.5399 18.6259 43.393 18.8472 43.298C19.0686 43.2031 19.1836 43.0516 19.1922 42.8437C19.1922 42.8437 19.2964 42.9521 19.5048 43.1691C19.6177 43.0696 19.6241 42.9137 19.5243 42.7012C19.5372 42.3893 19.433 42.2808 19.2116 42.3758C19.6803 41.562 20.0382 40.7957 20.2855 40.0769C20.5371 39.2541 20.8429 38.4335 21.2031 37.6153C21.3202 37.4118 21.2681 37.3576 21.0467 37.4525C20.9339 37.552 20.8818 37.4978 20.8904 37.2898C20.8991 37.0819 21.0683 36.9327 21.3982 36.8422C21.7281 36.7517 21.7346 36.5958 21.4177 36.3743C21.9689 36.1889 22.2011 35.834 22.1141 35.3096C22.14 34.6857 22.4286 34.2811 22.9799 34.0957C22.7715 33.8787 22.7301 33.5646 22.8559 33.1532C23.0903 32.7463 23.266 32.4411 23.3832 32.2377C23.6045 32.1427 23.7109 32.1992 23.7022 32.4071C23.9236 32.3122 23.9301 32.1562 23.7217 31.9392C23.6218 31.7268 23.7325 31.6793 24.0537 31.7968C23.9452 31.7923 23.8953 31.6861 23.9039 31.4781C24.1425 30.9673 24.2791 30.2959 24.3137 29.4641C24.6392 29.4776 24.7413 29.6381 24.6198 29.9455C24.6112 30.1535 24.711 30.3659 24.9195 30.5829C25.0453 30.1715 25.1125 29.8618 25.1211 29.6539C25.2426 29.3465 25.2013 29.0323 24.9972 28.7113C25.2099 28.8243 25.3184 28.8288 25.3227 28.7249C25.4356 28.6254 25.5484 28.5259 25.6613 28.4264C25.4529 28.2095 25.353 27.997 25.3616 27.7891C25.4788 27.5856 25.648 27.4364 25.8694 27.3415C25.6523 27.3324 25.546 27.276 25.5503 27.172C25.3333 27.163 25.2204 27.2624 25.2118 27.4704C25.3117 27.6828 25.2552 27.7326 25.0425 27.6196C24.8341 27.4026 24.8992 27.1449 25.2377 26.8465C25.5762 26.5481 25.6413 26.2904 25.4329 26.0735L26.0969 25.7886C26.3874 24.03 27.0013 22.3369 27.9385 20.7094C28.8758 19.0818 29.7045 17.4498 30.4248 15.8132C30.6418 15.8222 30.7482 15.8787 30.7439 15.9827C30.7611 15.5668 30.8305 15.2051 30.952 14.8977C31.2775 14.9112 31.4425 14.866 31.4468 14.762C31.564 14.5586 31.6269 14.3529 31.6355 14.1449C31.6484 13.833 31.7113 13.6273 31.8242 13.5278C31.9413 13.3244 32.1605 13.2814 32.4818 13.3989C32.3819 13.1864 32.2777 13.078 32.1692 13.0735C32.065 12.965 32.0715 12.809 32.1886 12.6056C32.4057 12.6146 32.4599 12.6168 32.3514 12.6123C32.3557 12.5084 32.3622 12.3524 32.3708 12.1444C32.7007 12.054 32.87 11.9048 32.8786 11.6968C33.0001 11.3894 33.2822 11.1407 33.7249 10.9508C33.7292 10.8468 33.5686 10.7881 33.243 10.7746C33.3559 10.6751 33.4145 10.5734 33.4188 10.4694C33.4274 10.2614 33.5381 10.214 33.7508 10.327C33.868 10.1235 33.8159 10.0693 33.5945 10.1642C33.3775 10.1552 33.2733 10.0467 33.2819 9.83879C33.4946 9.95178 33.6031 9.95628 33.6075 9.85231C33.6161 9.64435 33.7268 9.59687 33.9395 9.70987C33.6269 9.38442 33.6355 9.17647 33.9654 9.08601C34.2996 8.89158 34.369 8.52992 34.1735 8.00103C34.3906 8.01004 34.497 8.06653 34.4926 8.17051C34.6012 8.17501 34.6554 8.17727 34.6554 8.17727C34.6597 8.07329 34.7162 8.02356 34.8247 8.02807C34.6163 7.8111 34.6249 7.60315 34.8506 7.40421C35.0763 7.20527 35.0849 6.99732 34.8765 6.78035C34.985 6.78486 35.0371 6.8391 35.0328 6.94309C35.0328 6.94309 35.0871 6.94534 35.1956 6.94985C35.729 4.57643 36.6206 2.73867 37.8705 1.43656C39.1247 0.0304748 40.6961 0.147811 42.5848 1.78857C43.0016 2.2225 43.4184 2.65643 43.8352 3.09036C44.252 3.52429 44.7274 3.8565 45.2614 4.08698C45.661 4.93681 46.2776 5.79566 47.1112 6.66352ZM11.2019 97.8181C11.2889 98.3425 11.4951 98.6115 11.8207 98.625C12.1419 98.7425 12.5174 98.8622 12.9472 98.9842C13.3684 99.3142 13.6224 99.7414 13.7093 100.266C13.7963 100.79 13.9439 101.161 14.1523 101.378C13.8619 103.136 13.096 104.563 11.8548 105.657C10.6092 106.855 9.84122 108.333 9.55077 110.092C9.12964 109.762 8.53924 109.581 7.77958 109.55C7.01992 109.518 6.62498 109.866 6.59476 110.594C6.15635 110.68 5.8872 110.617 5.78731 110.404C5.68743 110.192 5.47254 110.131 5.14266 110.221C5.15129 110.013 5.10135 109.907 4.99283 109.903C4.99283 109.903 4.99714 109.799 5.00578 109.591C4.68021 109.577 4.51743 109.57 4.51743 109.57C4.62163 109.679 4.61732 109.783 4.50448 109.882C4.2005 109.349 3.51021 108.956 2.43362 108.703C1.46124 108.558 0.768797 108.217 0.356297 107.679C0.0523184 107.146 0.0782258 106.522 0.43402 105.808C0.785495 105.197 0.859187 104.732 0.655096 104.411C0.55521 104.198 0.563846 103.99 0.681004 103.787C0.798163 103.583 0.908844 103.536 1.01305 103.644C0.952024 102.496 1.27515 101.26 1.98241 99.935C2.68968 98.6103 3.49684 97.4982 4.40388 96.5984C5.41513 95.8072 6.4091 95.4318 7.38581 95.4724C8.47535 95.4135 9.31546 96.1254 9.90615 97.6081C10.2317 97.6216 10.4466 97.6826 10.5508 97.7911C10.7635 97.9041 10.9806 97.9131 11.2019 97.8181ZM8.74855 74.4376C9.30411 74.1482 9.42559 73.8408 9.11298 73.5153C9.10434 73.7233 8.98718 73.9267 8.7615 74.1257C8.54014 74.2206 8.53582 74.3246 8.74855 74.4376ZM27.2688 25.0561C27.0604 24.8391 27.0105 24.7329 27.119 24.7374C27.336 24.7464 27.4489 24.6469 27.4575 24.439C27.2405 24.43 27.1276 24.5295 27.119 24.7374C27.1104 24.9454 26.9954 25.0968 26.774 25.1918C27.0996 25.2053 27.2645 25.1601 27.2688 25.0561ZM19.4003 41.7587C19.1919 41.5417 19.092 41.3292 19.1007 41.1213C19.2178 40.9178 19.3849 40.8206 19.602 40.8296C19.7019 41.0421 19.6411 41.1958 19.4198 41.2908C19.3069 41.3902 19.3005 41.5462 19.4003 41.7587ZM24.9713 29.3352C24.7542 29.3262 24.6457 29.3217 24.6457 29.3217C24.65 29.2177 24.5415 29.2132 24.3201 29.3081C24.2203 29.0957 24.4416 29.0007 24.9842 29.0233L24.9713 29.3352ZM26.9821 24.1068C26.7651 24.0978 26.5958 24.247 26.4743 24.5544C26.4657 24.7624 26.5135 24.9206 26.6177 25.0291C26.6263 24.8211 26.6871 24.6674 26.7999 24.5679C26.9127 24.4685 26.9735 24.3147 26.9821 24.1068ZM25.799 32.9629C25.9118 32.8634 26.0204 32.8679 26.1246 32.9764C26.3416 32.9854 26.4002 32.8837 26.3003 32.6713C26.3003 32.6713 26.1375 32.6645 25.812 32.651L25.799 32.9629ZM13.0319 69.4598C13.0448 69.1479 12.8864 69.0371 12.5565 69.1276C12.5478 69.3356 12.5978 69.4418 12.7063 69.4463C12.8192 69.3468 12.9277 69.3513 13.0319 69.4598ZM12.4852 70.8432C12.3854 70.6308 12.394 70.4228 12.5111 70.2194C12.7368 70.0204 12.7368 70.0204 12.5111 70.2194L12.3419 70.3686C12.3246 70.7845 12.3724 70.9427 12.4852 70.8432ZM10.2728 77.0006C10.4898 77.0096 10.6026 76.9102 10.6113 76.7022C10.6199 76.4943 10.5157 76.3858 10.2987 76.3768L10.2728 77.0006ZM22.5386 40.7954C22.8641 40.8089 23.0334 40.6597 23.0464 40.3478C22.8293 40.3387 22.7186 40.3862 22.7143 40.4902C22.71 40.5942 22.6514 40.6959 22.5386 40.7954ZM22.1677 41.8736C22.3804 41.9866 22.4911 41.9391 22.4997 41.7311C22.5127 41.4192 22.4063 41.3627 22.1806 41.5617L22.1677 41.8736ZM42.1914 19.114C42.1828 19.322 42.2305 19.4802 42.3347 19.5887L42.0092 19.5752L42.0286 19.1073L42.1914 19.114ZM15.2703 62.6785L15.2832 62.3666L14.9577 62.3531L14.9447 62.665L15.2703 62.6785ZM23.8715 32.2579C24.0886 32.2669 24.1428 32.2692 24.0343 32.2647C24.0386 32.1607 24.0972 32.059 24.21 31.9595C23.8845 31.946 23.7716 32.0455 23.8715 32.2579ZM28.5378 21.9841C28.7506 22.0971 28.8613 22.0496 28.8699 21.8417C28.8828 21.5298 28.7765 21.4733 28.5508 21.6722L28.5378 21.9841ZM24.3987 31.3424C24.403 31.2385 24.4638 31.0847 24.5809 30.8813C24.8066 30.6824 24.8088 30.6304 24.5874 30.7253C24.5831 30.8293 24.5267 30.8791 24.4181 30.8745C24.518 31.087 24.4573 31.2407 24.2359 31.3357C24.1274 31.3312 24.1817 31.3334 24.3987 31.3424ZM24.8733 27.7688C24.9818 27.7733 25.0296 27.9315 25.0166 28.2434C24.9081 28.2389 24.8603 28.0807 24.8733 27.7688ZM27.3206 23.8084L27.3271 23.6524L27.1643 23.6457L27.1708 23.4897L27.008 23.4829L26.9951 23.7949L27.3206 23.8084ZM8.72264 75.0615L8.73559 74.7495C8.62707 74.745 8.57065 74.7948 8.56633 74.8987C8.56633 74.8987 8.51207 74.8965 8.40355 74.892L8.39707 75.0479L8.72264 75.0615ZM16.2768 50.2217C16.1726 50.1133 16.1226 50.007 16.127 49.9031L16.4525 49.9166L16.446 50.0725L16.2768 50.2217ZM22.1659 34.0619L22.1724 33.9059L22.498 33.9195L22.4915 34.0754L22.1659 34.0619ZM25.9212 26.0938L26.0775 26.2565L26.2403 26.2632L26.2468 26.1073L25.9212 26.0938ZM30.347 17.6848L30.1907 17.522L30.0279 17.5153L30.0215 17.6712L30.347 17.6848ZM28.7326 48.708L28.7261 48.8639L28.5633 48.8572L28.5698 48.7012L28.7326 48.708ZM24.3793 31.8103C24.2708 31.8058 24.2143 31.8556 24.21 31.9595L24.2165 31.8036L24.0537 31.7968L24.3793 31.8103Z" fill="#FF5100"/>
</svg>

<svg width="48" height="111" fill="none" xmlns="http://www.w3.org/2000/svg"><path d="M47.111 6.664l-.026.623c-.008.208.15.32.476.333-1.35 3.693-3.235 7.208-5.656 10.545-.035.832-.28 1.498-.736 2-.347.507-.538 1.176-.572 2.008-.217-.01-.382.036-.495.135-.004.104-.115.152-.332.143a45.604 45.604 0 01-1.816 4.455 196.482 196.482 0 01-2.141 4.442c.217.009.315.273.293.793l-.325-.013c-.148.93-.564 1.799-1.25 2.604-.681.7-1.154 1.618-1.419 2.753-.547.081-.781.488-.703 1.22-.325-.013-.438.087-.338.299a.64.64 0 01-.026.624 23.614 23.614 0 00-2.551 6.456c-.222.095-.35.558-.384 1.39-.551.185-.781.488-.69.909.2.424.078.732-.365.922.109.004.161.059.157.163l.163.006c-.434-.018-.606.184-.515.604.092.42.129.838.111 1.254a8.133 8.133 0 00-1.256 2.76 11.16 11.16 0 01-1.087 2.611c-.225.2-.453.45-.683.753-.226.199-.4.452-.52.76-.235.406-.309.872-.222 1.396.195.53-.039.936-.703 1.221.083.628.059 1.2-.071 1.716-.126.411-.306.82-.54 1.227.07.94-.084 2.028-.462 3.262-.377 1.234-.907 2.202-1.588 2.902l-.052 1.248c-.23.303-.464.71-.703 1.22-.238.511-.258.98-.058 1.404-.686.805-1.107 1.777-1.263 2.916-.156 1.14-.522 2.114-1.1 2.923a13.048 13.048 0 00-.637 3.567c-.052 1.248-.366 2.276-.943 3.085a19.153 19.153 0 01-.8 3.56 5.954 5.954 0 01-1.588 2.903c-.534-.23-.851-.452-.951-.664-.009.207-.339.298-.99.27-.304-.532-.836-.815-1.595-.847-.651-.026-1.129-.307-1.433-.84-.447.294-.827.278-1.14-.047-.308-.43-.735-.604-1.282-.522-.1-.213-.148-.371-.144-.475.005-.104-.102-.16-.319-.17-.19-.632-.497-1.114-.918-1.444-.417-.434-.662-1.069-.736-1.905.212.113.32.117.325.013.009-.208.12-.255.332-.142-.104-.109-.265-.167-.482-.176.339-.299.615-.391.827-.278.252-.823.386-1.443.404-1.859.13-.515.373-1.13.728-1.844.005-.104-.156-.163-.481-.176.334-.195.453-.45.358-.767l.488.02c.021-.52-.02-.833-.124-.942l.045-1.092.313.326c.482-1.126.8-2.258.956-3.397.27-1.24.85-2.153 1.745-2.74l.045-1.092c-.108-.004-.165.045-.17.15-.003.103-.112.099-.325-.014.36-.819.612-1.641.755-2.469.256-.927.666-1.639 1.23-2.136.117-.203.065-.258-.156-.163-.222.095-.328.039-.32-.17-.1-.212-.043-.261.17-.148.217.009.436-.034.658-.13-.209-.216-.256-.374-.144-.474l.508-.447c-.1-.213-.154-.215-.163-.007.1.212.046.21-.162-.007-.1-.212-.14-.579-.118-1.099l.488.02c.04-.935.189-1.918.45-2.949.368-1.026.784-1.894 1.249-2.604-.209-.217-.2-.425.026-.624.225-.199.238-.51.038-.936l-.019.468c-.326-.013-.545.03-.658.13-.304-.534-.343-.9-.117-1.1.334-.194.551-.185.651.028.1.212.258.323.475.332.226-.2.29-.405.19-.617-.096-.317.07-.414.5-.292.005-.104-.156-.163-.481-.176.117-.204.288-.405.514-.604.334-.194.397-.4.189-.617l.006-.156.488.02c-.104-.108-.154-.214-.15-.318.118-.204.066-.258-.156-.163.222-.095.337-.246.345-.454.013-.312.13-.516.352-.61-.543-.023-.584-.337-.124-.943.568-.601.753-1.115.553-1.54l.488.02c.013-.311.074-.465.183-.46.008-.208-.098-.265-.32-.17-.108-.004-.104-.108.013-.312.217.01.328-.038.332-.142.118-.204.285-.3.502-.292l-.788-.657c.225-.2.34-.35.345-.455.117-.203.338-.298.664-.285l-.47-.488c-.095-.316.022-.52.352-.61l-.163-.007.014-.312c-.218-.009-.276.093-.176.305.104.109.048.158-.17.15-.208-.218-.201-.373.02-.468.226-.2.443-.19.651.027.117-.204.124-.36.02-.468-.1-.213-.04-.367.182-.461-.217-.01-.328.038-.332.142l-.163-.007c.117-.203.286-.352.508-.447.221-.095.338-.299.351-.61.009-.209-.098-.265-.319-.17-.113.1-.165.045-.156-.163.647.131.924-.014.833-.434-.091-.42-.028-.626.189-.617-.1-.212-.209-.217-.326-.014-.004.104-.113.1-.325-.013.225-.2.449-.346.67-.441.222-.095.337-.246.345-.454l.313.325c.113-.1.12-.255.02-.468.012-.312-.092-.42-.313-.325.468-.814.826-1.58 1.073-2.3a22.42 22.42 0 01.918-2.46c.117-.204.065-.258-.156-.163-.113.099-.165.045-.157-.163.01-.208.178-.357.508-.448.33-.09.337-.246.02-.468.55-.185.783-.54.696-1.064.026-.624.315-1.029.866-1.214-.209-.217-.25-.531-.124-.943l.527-.915c.222-.095.328-.039.32.17.22-.096.227-.252.019-.469-.1-.212.01-.26.332-.142-.109-.005-.159-.11-.15-.319.238-.51.375-1.182.41-2.014.325.014.427.174.306.482-.009.207.091.42.3.637.125-.411.192-.721.201-.93.122-.306.08-.62-.124-.942.213.113.321.118.326.014l.338-.299c-.208-.216-.308-.429-.3-.637.118-.203.287-.353.508-.448-.217-.009-.323-.065-.319-.169-.217-.009-.33.09-.338.298.1.213.043.263-.17.15-.208-.217-.143-.475.196-.774.338-.298.403-.556.195-.773l.664-.284c.29-1.759.904-3.452 1.841-5.08a50.908 50.908 0 002.487-4.896c.217.01.323.066.319.17.017-.416.087-.778.208-1.085.325.013.49-.032.495-.136.117-.203.18-.41.189-.617.012-.312.075-.518.188-.617.117-.204.336-.247.658-.13-.1-.212-.204-.32-.313-.325-.104-.108-.097-.264.02-.467l.162.006.02-.468c.33-.09.499-.24.508-.447.121-.308.403-.556.846-.746.004-.104-.156-.163-.482-.176.113-.1.171-.202.176-.306.008-.208.12-.255.332-.142.117-.204.065-.258-.157-.163-.217-.009-.32-.117-.312-.325.213.113.321.117.326.013.008-.208.119-.255.332-.142-.313-.326-.304-.534.025-.624.335-.194.404-.556.208-1.085.218.009.324.066.32.17l.162.006c.005-.104.061-.153.17-.149-.209-.217-.2-.425.026-.624.225-.199.234-.407.026-.624.108.005.16.06.156.163l.163.007c.533-2.374 1.425-4.211 2.675-5.513 1.254-1.407 2.825-1.29 4.714.352l1.25 1.301c.417.434.892.767 1.426.997.4.85 1.017 1.709 1.85 2.577zm-35.91 91.154c.088.525.294.794.62.807.32.118.696.237 1.126.36.421.33.675.756.762 1.281.087.524.235.895.443 1.112-.29 1.758-1.056 3.185-2.297 4.279-1.246 1.198-2.014 2.676-2.304 4.435-.421-.33-1.012-.511-1.771-.542-.76-.032-1.155.316-1.185 1.044-.439.086-.708.023-.808-.19-.1-.212-.314-.273-.644-.183.008-.208-.042-.314-.15-.318l.013-.312-.489-.021c.105.109.1.213-.013.312-.303-.533-.994-.926-2.07-1.179-.973-.145-1.665-.486-2.078-1.024-.304-.533-.278-1.157.078-1.871.351-.611.425-1.076.221-1.397a.64.64 0 01.026-.624c.117-.204.228-.251.332-.143-.061-1.148.262-2.384.97-3.709.707-1.325 1.514-2.437 2.42-3.337 1.012-.79 2.006-1.166 2.983-1.126 1.09-.058 1.93.653 2.52 2.136.326.014.54.075.645.183.213.113.43.122.65.027zM8.75 74.438c.555-.29.677-.597.364-.923-.009.208-.126.412-.351.61-.222.096-.226.2-.013.313zm18.52-49.382c-.209-.217-.258-.323-.15-.319.217.01.33-.09.338-.298-.216-.009-.33.09-.338.298-.009.208-.124.36-.345.455.326.013.49-.032.495-.136zM19.4 41.76c-.208-.217-.308-.43-.3-.638.118-.203.285-.3.502-.291.1.212.04.366-.182.46-.113.1-.12.256-.02.469zm5.571-12.424l-.325-.013c.004-.104-.105-.109-.326-.014-.1-.212.122-.307.664-.285l-.013.312zm2.011-5.228c-.217-.01-.386.14-.508.447-.008.208.04.367.144.475.008-.208.07-.362.182-.461.113-.1.174-.253.182-.461zM25.8 32.963c.113-.1.221-.095.326.013.217.01.275-.092.175-.305l-.488-.02-.013.312zM13.032 69.46c.013-.312-.146-.423-.476-.332-.008.208.042.314.15.318.113-.1.222-.095.326.014zm-.547 1.383a.64.64 0 01.026-.624c.226-.199.226-.199 0 0l-.17.15c-.016.415.031.574.144.474zm-2.212 6.158c.217.009.33-.09.338-.299.009-.208-.095-.316-.312-.325l-.026.624zm12.266-36.206c.325.014.494-.135.507-.447-.217-.01-.327.038-.332.142-.004.104-.063.206-.175.305zm-.371 1.079c.212.113.323.065.332-.143.013-.312-.094-.368-.32-.17l-.012.313zm20.023-22.76c-.008.208.04.366.144.475l-.326-.014.02-.468.162.007zm-26.92 43.564l.012-.311-.325-.014-.013.312.325.014zm8.6-30.42l.163.007c.005-.104.063-.206.176-.306-.326-.013-.438.086-.338.299zm4.667-10.274c.213.113.323.066.332-.142.013-.312-.094-.369-.32-.17l-.012.312zm-4.14 9.358c.005-.104.066-.257.183-.46.226-.2.228-.252.006-.157-.004.104-.06.154-.169.15.1.212.04.366-.182.46l.163.007zm.475-3.573c.109.004.157.163.144.474-.109-.004-.157-.162-.144-.474zm2.448-3.96l.006-.157-.163-.006.007-.156-.163-.007-.013.312.326.013zM8.723 75.06l.013-.312c-.109-.004-.165.046-.17.15l-.162-.007-.007.156.326.013zm7.554-24.84c-.104-.108-.154-.214-.15-.318l.326.014-.007.155-.17.15zm5.889-16.16l.006-.155.326.014-.007.155-.325-.013zm3.755-7.967l.157.162.162.007.007-.156-.326-.013zm4.426-8.41l-.156-.162-.163-.007-.006.156.325.014zm-1.614 31.024l-.007.156-.163-.007.007-.156.163.007zM24.379 31.81c-.108-.004-.165.046-.169.15l.006-.156-.162-.007.325.013z" fill="#FF5100"/></svg>
